X: 36364
T: Sean McGovern's
R: polka
M: 2/4
K: Dmajor
|:d>B|AD FA|GF E>B|AD FA|d2 c>B|
AD FA|GF Ed|c/B/A Bc|d2:|
|:d>e|fd gf|e/f/e/c/ Ae|fa gf|e2 de|
fd gf|e/f/e/c/ A>B|BA Bc|d2:|

